static/img/icons/calendar.svg

<svg version="1.1" xmlns="http://www.w3.org/2000/svg" width="32" height="32" viewBox="0 0 32 32">
    <title>Publish Date</title>
    <path d="M10 12h4v4h-4zM16 12h4v4h-4zM22 12h4v4h-4zM4 24h4v4h-4zM10 24h4v4h-4zM16 24h4v4h-4zM10 18h4v4h-4zM16 18h4v4h-4zM22 18h4v4h-4zM4 18h4v4h-4zM26 0v2h-4v-2h-14v2h-4v-2h-4v32h30v-32h-4zM28 30h-26v-22h26v22z" fill="#666666"></path>
</svg>

<svg xmlns="http://www.w3.org/2000/svg" width="32" height="32"><path d="M10 12h4v4h-4zm6 0h4v4h-4zm6 0h4v4h-4zM4 24h4v4H4zm6 0h4v4h-4zm6 0h4v4h-4zm-6-6h4v4h-4zm6 0h4v4h-4zm6 0h4v4h-4zM4 18h4v4H4zM26 0v2h-4V0H8v2H4V0H0v32h30V0h-4zm2 30H2V8h26v22z" fill="#666"/></svg>
